X:1
T:Ah Vous Dirai-Je Maman Var. V
T:Ah Vous Dirai-Je Maman Var. V
T:One Scherzo For Two Guitars
T:Wolfgang Amadeus Mozart Ed.: J. J. Olson 
T:by Mutopia-2018/12/07-2238 - Public Domain
C:Wolfgang Amadeus Mozart
Z:by Mutopia-2018/12/07-2238 - Public Domain
%%score [ 1 2 ]
L:1/8
Q:1/4=84
M:2/4
K:C
V:1 treble-8 nm="Guitar I"
V:2 treble-8 nm="Guitar II"
V:1
"^Accelerando""^VII" .c2 z .c | .g2 z .g | .a2 z .a |"^VI" .!3!g2 z .!4!!3![eg] | %4
[Q:1/4=92] z [ef] z [df] | z"^b_V" [de] z [ce] | z"^III" !3![cd] z [Bd] | c2 z2 || %8
[Q:1/4=100] !4!g2 z (!4!g | !4!_g2) z (!3!f | !3!e2) z (!2!_e | !2!d2) z G | %12
[Q:1/4=108] !4!g2 z (!4!g/!4!_g/) | !3!f2 z (!3!f/!3!e/) | !2!_e2 z (!2!_g/!2!=g/) | %15
 !1!d2 z !2!f/!3!d/ |[Q:1/4=116] !1!c2 z"^b_V" (c/e/) | g2 z (g/e/) | a2 z (a/!4!c'/) | %19
 !4!g2 z"^V" (!1!e/!4!g/) |[Q:1/4=124] z (!4!g/!4!_g/) z"^III" (!1!d/!4!f/) | %21
 z (!4!f/!4!e/) z (!1!g/!0!e/) | z"^II" (!1!_d/!1!=d/) z (!4!f/!1!d/) | z (!2!B/!2!c/) z2 |] %24
V:2
 z"^II" .!2!C .E2 | z .E .C2 | z .!3!F .C2 | z E C2 | !4!D z !1!B, z | !2!C z !4!A, z | %6
"^I" !1!F, z !3!G, z | z"^III" !4!G !1!C2 || z"^II" !1!E !2!G,2 | z !4!D G,2 | z !3!C G,2 | %11
 z !1!B, G,2 | z E G,2 | z D G,2 | z C G,2 | z B, G,2 | z"^II" !0!E,/!2!G,/ !3!C2 | %17
 z !3!C/!1!E/ !0!G2 | z !3!F/!1!A/ !2!C2 | z !1!E/!0!G/ !2!C2 | !4!D z !1!B, z | %21
 !2!C z"^I" !0!E, z | !1!F, z !3!G, z |"^B_VIII" !1!C z c' z |] %24

